X: 8843
T: Cuilin Ui Chaoimh
R: jig
M: 6/8
K: Dmajor
B3 BAF|Add d2c|B3 BAF|AFE EFA|
B3 BAF|Add dAF|GBG FAF|1 EFE DFA:|2 EFE D3||
DFA d2e|fdf ecA|g2e fdB|AFA B2d|
Adf ~a3|baf a2f|g2e fdB|AFA B2g|
fdd d2e|fdf ecA|g2e fdB|AFA B2d|
Adf a z a|baf a2f|g2e fdB|AFA B/c/dc||

